src/lib/packages/icons/src/assets/filled/exchange-vertical-square.svg

<svg width="24" height="24" viewBox="0 0 24 24" fill="none" xmlns="http://www.w3.org/2000/svg">
<path d="M17.625 3H6.375C4.125 3 3 4.125 3 6.375V17.625C3 19.875 4.125 21 6.375 21H17.625C19.875 21 21 19.875 21 17.625V6.375C21 4.125 19.875 3 17.625 3ZM11.3999 16.502C11.3999 16.805 11.217 17.0791 10.937 17.1951C10.844 17.2341 10.7469 17.252 10.6499 17.252C10.4549 17.252 10.2631 17.176 10.1201 17.032L7.41992 14.332C7.12692 14.039 7.12692 13.564 7.41992 13.271C7.71292 12.978 8.18796 12.978 8.48096 13.271L9.90088 14.6909V9.30103C9.90088 8.88703 10.2369 8.55103 10.6509 8.55103C11.0649 8.55103 11.4009 8.88703 11.4009 9.30103V16.502H11.3999ZM16.5801 10.7319C16.2871 11.0249 15.812 11.0249 15.519 10.7319L14.0991 9.31299V14.7019C14.0991 15.1159 13.7631 15.4519 13.3491 15.4519C12.9351 15.4519 12.5991 15.1159 12.5991 14.7019V7.50195C12.5991 7.19895 12.782 6.92508 13.062 6.80908C13.342 6.69308 13.6649 6.75692 13.8789 6.97192L16.5791 9.67212C16.8731 9.96412 16.8731 10.4389 16.5801 10.7319Z" fill="currentColor"/>
</svg>

<svg xmlns="http://www.w3.org/2000/svg" width="24" height="24" fill="none"><path fill="currentColor" d="M17.625 3H6.375C4.125 3 3 4.125 3 6.375v11.25C3 19.875 4.125 21 6.375 21h11.25C19.875 21 21 19.875 21 17.625V6.375C21 4.125 19.875 3 17.625 3ZM11.4 16.502a.75.75 0 0 1-1.28.53l-2.7-2.7a.75.75 0 1 1 1.061-1.061l1.42 1.42V9.3a.75.75 0 0 1 1.5 0v7.201H11.4Zm5.18-5.77a.75.75 0 0 1-1.061 0l-1.42-1.419v5.389a.75.75 0 0 1-1.5 0v-7.2a.75.75 0 0 1 1.28-.53l2.7 2.7a.748.748 0 0 1 .001 1.06Z"/></svg>
